X:1
T:Title
%%score { ( 1 4 5 ) | ( 2 3 ) }
L:1/8
Q:1/4=100
M:4/4
K:G
V:1 treble nm="Grand Piano"
V:4 treble 
V:5 treble 
V:2 bass 
V:3 bass 
V:1
 BAcB A2 B>A | [B,G]3 E D2 z2 | E[DF][EG][EA] [DB]2 d>B | A6 z2 | BAcB A2 B>A | [B,G]3 E D2 z2 | %6
w: T.~Martin~Towne * * * * * *||||||
 E[Ec][DEB][CEA] [B,DG]2 [A,DF]2 | [B,DG]6 z2 |[M:6/8] [B,G]2- [B,-DG-] [B,G]F[B,DG] | %9
w: |||
 [DA]2- [D-FA-] [DFA]3 | .[GB]6 | [Ec]6 | .[Ge]6 | [DB]3- [DB]A[B,G] | .[CF]6 | [G,B,G]6 |] %16
w: |||||||
V:2
 [G,D][G,C][G,E][G,D] [D,F,C]2 D>C | z2 z C [G,B,]2 z2 | %2
 [C,G,C][C,G,][C,G,][C,G,] [G,,G,]2 [B,,G,]2 | [D,F,D]6 z2 | [G,D][G,C][G,E][G,D] [D,F,C]2 D>C | %5
 z2 z C [G,B,]2 z2 | [C,G,][A,,A,]B,,C, D,2 D,2 | G,,6 z2 |[M:6/8] G,2 G, z A,G, | D,2 D, .D,3 | %10
 G,2 G, z[K:treble] F[G,=F] | [C,G,]2 C, .C,3 | [C,C]2 C, z[K:treble] FE | G,2 G, z C[K:bass]G, | %14
 D,2 D, z ED, | G,,6 |] %16
V:3
 z4 z2 [D,F,]2 | G,4 z4 | x8 | x8 | z4 z2 [D,F,]2 | G,4 z4 | x8 | x8 |[M:6/8] z3 .G,3 | x6 | %10
 z3 .G,3[K:treble] | x6 | z3 .C,3[K:treble] | z3 .G,3[K:bass] | z3 .D,3 | x6 |] %16
V:4
 x8 | x8 | z4 z2 D2 | x8 | x8 | x8 | x8 | x8 |[M:6/8] .D3 .D3 | .F3 z3 | D2 D z AB | z2 G, .G,3 | %12
 z2 C z dc | x6 | A,2 A, A,2 [A,CF] | x6 |] %16
V:5
 x8 | x8 | x8 | x8 | x8 | x8 | x8 | x8 |[M:6/8] x6 | x6 | z3 .D3 | x6 | z3 .C3 | x6 | x6 | x6 |] %16

